X: 21
T:Staffansvisa
M:C|
L:1/4
C:anon.
O:Sweden
Z:Transcribed by Frank Nordberg - http://www.musicaviva.com
K:Gm
GGG^F|GBd>B|GGBG|G2^FF|AAcc|AABB|GGBG|
G2^F2|GGG=F|Bcd2|edcB|AGB>A|G2 z2:|]
W:
W: From "Falaleiro" http://home.t-online.de/home/pheld/homepage.htm

